!!!!SEGMENT: pl-wtm--r-612-m--002_moniuszko-stanislaw--libella-albo-zemsta-owadu-no-6.krn
!!!cenid: 18xx:3005
!!!COM: Moniuszko, Stanisław
!!!COM-rismid: pe30008351
!!!CDT: 1819/05/05-1872/06/04
!!!CNT: Polish
!!!GTL: Libella albo Zemsta Owadu
!!!OTL: No. 6
!!!PDT: 1871
!!!AGN: Secular
!!!SMS-siglum: PL-Wtm
!!!SMS-shelfmark: R 612/M
!!!SMS-shelfwork: 002 G
!!!SMS-variant:
!!!SMS-altvar:
!!!NIFC-rismid: 1001090829
!!!URL-scan: http://repozytorium.nifc.pl/skany/pl-wtm-nut--r612m
!!!ONB-nifc: UWAGA: skany 0015-0016
!!!key:
**kern	**dynam	**kern	**dynam	**kern	**dynam	**kern	**dynam	**kern	**dynam	**kern	**dynam	**kern	**dynam	**kern	**dynam	**kern	**dynam	**kern	**dynam
*part10	*part10	*part9	*part9	*part8	*part8	*part7	*part7	*part6	*part6	*part5	*part5	*part4	*part4	*part3	*part3	*part2	*part2	*part1	*part1
*staff10	*	*staff9	*	*staff8	*	*staff7	*	*staff6	*	*staff5	*	*staff4	*	*staff3	*	*staff2	*	*staff1	*
*Iempty	*	*Iviola	*	*Ivioln	*	*Ivioln	*	*Iempty	*	*Iempty	*	*Ifagot	*	*Iclars	*	*Ioboe	*	*Iflt	*
*I"Viclli	*	*I"Vla.	*	*I"V. 2.	*	*I"V. 1.	*	*I"Corni 3, 4 in F.	*	*I"in F. Corni 1.2.	*	*I"Fag:	*	*I"in B. Clar:	*	*I"Ob.	*	*I"Flauti	*
*>[A,B,B,C]	*>[A,B,B,C]	*>[A,B,B,C]	*>[A,B,B,C]	*>[A,B,B,C]	*>[A,B,B,C]	*>[A,B,B,C]	*>[A,B,B,C]	*>[A,B,B,C]	*>[A,B,B,C]	*>[A,B,B,C]	*>[A,B,B,C]	*>[A,B,B,C]	*>[A,B,B,C]	*>[A,B,B,C]	*>[A,B,B,C]	*>[A,B,B,C]	*>[A,B,B,C]	*>[A,B,B,C]	*>[A,B,B,C]
*>A	*>A	*>A	*>A	*>A	*>A	*>A	*>A	*>A	*>A	*>A	*>A	*>A	*>A	*>A	*>A	*>A	*>A	*>A	*>A
*clefF4	*	*clefC3	*	*clefG2	*	*clefG2	*	*clefG2	*	*clefG2	*	*clefF4	*	*clefG2	*	*clefG2	*	*clefG2	*
*	*	*	*	*	*	*	*	*ITrd4c7	*	*ITrd4c7	*	*	*	*ITrd1c2	*	*	*	*	*
*k[b-]	*	*k[b-]	*	*k[b-]	*	*k[b-]	*	*k[b-]	*	*k[b-]	*	*k[b-]	*	*k[b-]	*	*k[b-]	*	*k[b-]	*
*F:	*	*F:	*	*F:	*	*F:	*	*F:	*	*F:	*	*F:	*	*F:	*	*F:	*	*F:	*
*M2/4	*	*M2/4	*	*M2/4	*	*M2/4	*	*M2/4	*	*M2/4	*	*M2/4	*	*M2/4	*	*M2/4	*	*M2/4	*
=1	=1	=1	=1	=1	=1	=1	=1	=1	=1	=1	=1	=1	=1	=1	=1	=1	=1	=1	=1
*	*	*	*	*	*	*	*	*	*	*^	*	*	*	*^	*	*	*	*	*
!	!	!	!	!	!	!	!	!	!	!	!	!	!LO:TX:a:i:t=All°, non troppo presto.:note=podkreślone	!	!LO:TX:a:i:t=Clar&colon;:note=podkreślone	!	!LO:DY:t=pp.	!	!	!	!
!	!	!	!	!	!	!	!	!	!	!	!	!	!	!	!LO:TX:a:t=d	!	!	!	!	!	!
!	!	!	!	!	!	!	!	!LO:TX:t=P:problem=partia w I systemie na dole partytury	!	!	!	!	!	!	!LO:TX:t=P:problem=przy kluczu f#	!	!	!	!	!	!
2r	.	2r	.	2r	.	2r	.	2r	.	4.c^</	2r	pp	2ryy	.	4.cc^</	2r	pp	2ryy	.	2ryy	.
!	!	!	!	!	!	!	!	!	!	!	!	!	!	!	!LO:TX:a:t=d	!	!	!	!	!	!
.	.	.	.	.	.	.	.	.	.	16c'</LL	.	.	.	.	16cc/LL	.	.	.	.	.	.
!	!	!	!	!	!	!	!	!	!	!	!	!	!	!	!LO:TX:a:t=d	!	!	!	!	!	!
.	.	.	.	.	.	.	.	.	.	16c'</JJ	.	.	.	.	16cc/JJ	.	.	.	.	.	.
=2	=2	=2	=2	=2	=2	=2	=2	=2	=2	=2	=2	=2	=2	=2	=2	=2	=2	=2	=2	=2	=2
*	*	*	*	*	*	*	*	*	*	*rep	*	*	*	*	*	*	*	*	*	*	*
!	!	!	!	!	!	!	!	!	!	!	!	!	!	!	!LO:TX:a:t=d	!	!	!	!	!	!
2ryy	.	2ryy	.	2ryy	.	2ryy	.	2ryy	.	4.c^</	2r	.	2ryy	.	4.cc^</	2r	.	2ryy	.	2ryy	.
!	!	!	!	!	!	!	!	!	!	!	!	!	!	!	!LO:TX:a:t=d	!	!	!	!	!	!
.	.	.	.	.	.	.	.	.	.	16c'</LL	.	.	.	.	16cc/LL	.	.	.	.	.	.
!	!	!	!	!	!	!	!	!	!	!	!	!	!	!	!LO:TX:a:t=d	!	!	!	!	!	!
.	.	.	.	.	.	.	.	.	.	16c'</JJ	.	.	.	.	16cc/JJ	.	.	.	.	.	.
*	*	*	*	*	*	*	*	*	*	*Xrep	*	*	*	*	*	*	*	*	*	*	*
*	*	*	*	*	*	*	*	*	*	*	*	*	*	*	*v	*v	*	*	*	*	*
=3	=3	=3	=3	=3	=3	=3	=3	=3	=3	=3	=3	=3	=3	=3	=3	=3	=3	=3	=3	=3
!	!	!	!	!	!	!	!	!	!	!	!	!LO:DY:rj	!	!	!	!	!	!	!	!
2ryy	.	2ryy	.	2ryy	.	2ryy	.	2ryy	.	8g'/L	8c\L	pp	2ryy	.	2ccTT/	.	2ryy	.	2ryy	.
.	.	.	.	.	.	.	.	.	.	8a'/J	8f\J	.	.	.	.	.	.	.	.	.
.	.	.	.	.	.	.	.	.	.	4b-/	4g\	.	.	.	.	.	.	.	.	.
=4	=4	=4	=4	=4	=4	=4	=4	=4	=4	=4	=4	=4	=4	=4	=4	=4	=4	=4	=4	=4
2ryy	.	2ryy	.	2ryy	.	2ryy	.	2ryy	.	8a'/L	8f\L	.	2ryy	.	2ccTTT/	.	2ryy	.	2ryy	.
.	.	.	.	.	.	.	.	.	.	8g'/J	8c\J	.	.	.	.	.	.	.	.	.
.	.	.	.	.	.	.	.	.	.	(4f/	(4A\	.	.	.	.	.	.	.	.	.
.	.	.	.	.	.	.	.	.	.	.	.	.	.	.	16qqbX/LL	.	.	.	.	.
.	.	.	.	.	.	.	.	.	.	.	.	.	.	.	16qqcc/	.	.	.	.	.
.	.	.	.	.	.	.	.	.	.	.	.	.	.	.	16qqdd/JJ	.	.	.	.	.
=5	=5	=5	=5	=5	=5	=5	=5	=5	=5	=5	=5	=5	=5	=5	=5	=5	=5	=5	=5	=5
2ryy	.	2ryy	.	2ryy	.	2ryy	.	2ryy	.	8g/)	8c\)	.	4r	.	8cc/	.	2ryy	.	2ryy	.
.	.	.	.	.	.	.	.	.	.	8r	8ryy	.	.	.	8r	.	.	.	.	.
!	!	!	!	!	!	!	!	!	!	!	!	!LO:DY:rj	!	!LO:DY:t=p.:rj	!	!	!	!	!	!
.	.	.	.	.	.	.	.	.	.	[4c [4C^/	4ryy	p	[4c [4C^\	p	4r	.	.	.	.	.
*	*	*	*	*	*	*	*	*	*	*v	*v	*	*	*	*	*	*	*	*	*
=6	=6	=6	=6	=6	=6	=6	=6	=6	=6	=6	=6	=6	=6	=6	=6	=6	=6	=6	=6
2ryy	.	2ryy	.	2ryy	.	2ryy	.	2ryy	.	4c_ 4C^/_	.	4c_ 4C^\_	.	2r	.	2ryy	.	2ryy	.
.	.	.	.	.	.	.	.	.	.	4c] 4C^/]	.	4c] 4C^\]	.	.	.	.	.	.	.
=7	=7	=7	=7	=7	=7	=7	=7	=7	=7	=7	=7	=7	=7	=7	=7	=7	=7	=7	=7
*	*	*	*	*	*	*	*	*	*	*	*	*^	*	*^	*	*	*	*	*
2ryy	.	2ryy	.	2ryy	.	2ryy	.	2ryy	.	8r	.	8F/	8F\	.	8cc'/L	8a\L	.	2ryy	.	2ryy	.
.	.	.	.	.	.	.	.	.	.	8c 8A/	.	8r	8ryy	.	8cc'/J	8a\J	.	.	.	.	.
.	.	.	.	.	.	.	.	.	.	8r	.	8C/	8C\	.	8r	8r	.	.	.	.	.
*	*	*	*	*	*	*	*	*	*	*	*	*	*	*	*	*Xtuplet	*	*	*	*	*
!	!	!	!	!	!	!	!	!	!	!	!	!	!	!	!LO:TUP:a:problem=klamra łukowa	!	!	!	!	!	!
.	.	.	.	.	.	.	.	.	.	8c 8A/	.	8r	8ryy	.	24cc/LL	24a\LL	.	.	.	.	.
.	.	.	.	.	.	.	.	.	.	.	.	.	.	.	24dd/	24b-\	.	.	.	.	.
.	.	.	.	.	.	.	.	.	.	.	.	.	.	.	24cc/JJ	24a\JJ	.	.	.	.	.
*	*	*	*	*	*	*	*	*	*	*	*	*	*	*	*v	*v	*	*	*	*	*
=8	=8	=8	=8	=8	=8	=8	=8	=8	=8	=8	=8	=8	=8	=8	=8	=8	=8	=8	=8	=8
*	*	*	*	*	*	*	*	*	*	*rep	*	*rep	*rep	*	*	*	*	*	*	*
2ryy	.	2ryy	.	2ryy	.	2ryy	.	2ryy	.	8r	.	8F/	8F\	.	(8aL 8f\	.	2ryy	.	2ryy	.
.	.	.	.	.	.	.	.	.	.	8c 8A/	.	8r	8ryy	.	8b- 8g\	.	.	.	.	.
.	.	.	.	.	.	.	.	.	.	8r	.	8C/	8C\	.	8cc 8a'\)	.	.	.	.	.
.	.	.	.	.	.	.	.	.	.	8c 8A/	.	8r	8ryy	.	8aaJ 8cc'\	.	.	.	.	.
*	*	*	*	*	*	*	*	*	*	*Xrep	*	*Xrep	*Xrep	*	*	*	*	*	*	*
!!LO:LB:g=original
=9	=9	=9	=9	=9	=9	=9	=9	=9	=9	=9	=9	=9	=9	=9	=9	=9	=9	=9	=9	=9
*	*	*	*	*	*	*	*	*	*	*rep	*	*rep	*rep	*	*	*	*	*	*	*
2r	.	2r	.	2r	.	2ryy	.	2ryy	.	8r	.	8F/	8F\	.	8ccL 8a'\	.	2ryy	.	2ryy	.
.	.	.	.	.	.	.	.	.	.	8c 8A/	.	8r	8ryy	.	8ccJ 8f'\	.	.	.	.	.
.	.	.	.	.	.	.	.	.	.	8r	.	8C/	8C\	.	8r	.	.	.	.	.
*	*	*	*	*	*	*	*	*	*	*	*	*	*	*	*tuplet	*	*	*	*	*
!	!	!	!	!	!	!	!	!	!	!	!	!	!	!	!LO:TUP:a:problem=klamra łukowa	!	!	!	!	!
.	.	.	.	.	.	.	.	.	.	8c 8A/	.	8r	8ryy	.	24ccLL 24a\	.	.	.	.	.
.	.	.	.	.	.	.	.	.	.	.	.	.	.	.	24dd 24b-\	.	.	.	.	.
.	.	.	.	.	.	.	.	.	.	.	.	.	.	.	24ccJJ 24a\	.	.	.	.	.
*	*	*	*	*	*	*	*	*	*	*Xrep	*	*Xrep	*Xrep	*	*	*	*	*	*	*
=10	=10	=10	=10	=10	=10	=10	=10	=10	=10	=10	=10	=10	=10	=10	=10	=10	=10	=10	=10	=10
*	*	*	*	*	*	*	*	*	*	*rep	*	*	*	*	*	*	*	*	*	*
2ryy	.	2ryy	.	2ryy	.	2ryy	.	2ryy	.	8r	.	8F/	8F\	.	(8aL 8f^\	.	2ryy	.	2ryy	.
.	.	.	.	.	.	.	.	.	.	8c 8A/	.	8r	8ryy	.	8b- 8g\	.	.	.	.	.
*	*	*	*	*	*	*	*	*	*	*	*	*rep	*rep	*	*	*	*	*	*	*
.	.	.	.	.	.	.	.	.	.	8r	.	8F/	8F\	.	8ccJ 8a\)	.	.	.	.	.
!	!	!	!	!	!	!	!	!	!	!	!	!	!	!	!LO:S:s=2:note:problem=note-level slur	!	!	!	!	!
.	.	.	.	.	.	.	.	.	.	8c 8A/	.	8r	8ryy	.	(8aa (>8cc\	.	.	.	.	.
*	*	*	*	*	*	*	*	*	*	*Xrep	*	*Xrep	*Xrep	*	*	*	*	*	*	*
=11	=11	=11	=11	=11	=11	=11	=11	=11	=11	=11	=11	=11	=11	=11	=11	=11	=11	=11	=11	=11
2ryy	.	2ryy	.	2ryy	.	2ryy	.	2ryy	.	8r	.	8C/	8C\	.	8ggL 8b-'\))	.	2ryy	.	2ryy	.
.	.	.	.	.	.	.	.	.	.	8e 8c/	.	8r	8ryy	.	8ggJ 8b-'\	.	.	.	.	.
*	*	*	*	*	*	*	*	*	*	*	*	*rep	*rep	*	*	*	*	*	*	*
.	.	.	.	.	.	.	.	.	.	8r	.	8C/	8C\	.	8r	.	.	.	.	.
!	!	!	!	!	!	!	!	!	!	!	!	!	!	!	!LO:TUP:a	!	!	!	!	!
.	.	.	.	.	.	.	.	.	.	8f 8c/	.	8r	8ryy	.	(24ffLL 24a\	.	.	.	.	.
.	.	.	.	.	.	.	.	.	.	.	.	.	.	.	24gg 24b-\	.	.	.	.	.
.	.	.	.	.	.	.	.	.	.	.	.	.	.	.	24ffJJ 24a\	.	.	.	.	.
*	*	*	*	*	*	*	*	*	*	*	*	*Xrep	*Xrep	*	*	*	*	*	*	*
=12	=12	=12	=12	=12	=12	=12	=12	=12	=12	=12	=12	=12	=12	=12	=12	=12	=12	=12	=12	=12
*	*	*	*	*	*	*	*	*	*	*	*	*rep	*rep	*	*	*	*	*	*	*
2ryy	.	2ryy	.	2ryy	.	2ryy	.	2ryy	.	8r	.	8C/	8C\	.	8eeL 8g'\)	.	2ryy	.	2ryy	.
.	.	.	.	.	.	.	.	.	.	8g 8c/	.	8r	8ryy	.	8eeJ 8g'\	.	.	.	.	.
.	.	.	.	.	.	.	.	.	.	8r	.	8C/	8C\	.	8r	.	.	.	.	.
!	!	!	!	!	!	!	!	!	!	!	!	!	!	!	!LO:TUP:a	!	!	!	!	!
.	.	.	.	.	.	.	.	.	.	8g 8G/	.	8r	8ryy	.	24ddLL 24f\	.	.	.	.	.
.	.	.	.	.	.	.	.	.	.	.	.	.	.	.	24ee 24g\	.	.	.	.	.
.	.	.	.	.	.	.	.	.	.	.	.	.	.	.	24ddJJ 24f\	.	.	.	.	.
*	*	*	*	*	*	*	*	*	*	*	*	*Xrep	*Xrep	*	*	*	*	*	*	*
=13	=13	=13	=13	=13	=13	=13	=13	=13	=13	=13	=13	=13	=13	=13	=13	=13	=13	=13	=13	=13
*	*	*	*	*	*	*	*	*	*	*	*	*	*	*	*^	*	*	*	*	*
2ryy	.	2ryy	.	2ryy	.	2ryy	.	2ryy	.	8r	.	8C/	8C\	.	(8cc/L	8e\L	.	2ryy	.	2ryy	.
.	.	.	.	.	.	.	.	.	.	8g 8c\	.	8r	8ryy	.	8ee/	8cc\	.	.	.	.	.
.	.	.	.	.	.	.	.	.	.	8r	.	8AA/	8AA\	.	8aa/	8cc\	.	.	.	.	.
.	.	.	.	.	.	.	.	.	.	8a 8A\	.	8r	8ryy	.	8gg/J)	8ee\J	.	.	.	.	.
*	*	*	*	*	*	*	*	*	*	*	*	*	*	*	*v	*v	*	*	*	*	*
=14	=14	=14	=14	=14	=14	=14	=14	=14	=14	=14	=14	=14	=14	=14	=14	=14	=14	=14	=14	=14
2ryy	.	2r	.	2r	.	2ryy	.	2ryy	.	8r	.	8D/	8D\	.	(8ggL 8ee\	.	2ryy	.	2ryy	.
.	.	.	.	.	.	.	.	.	.	8a 8d\	.	8r	8ryy	.	8ffJ 8dd\)	.	.	.	.	.
.	.	.	.	.	.	.	.	.	.	8r	.	8GG/	8GG\	.	8aL 8f'/	.	.	.	.	.
.	.	.	.	.	.	.	.	.	.	8g 8G'/	.	8r	8ryy	.	8bXJ 8g'/	.	.	.	.	.
=15	=15	=15	=15	=15	=15	=15	=15	=15	=15	=15	=15	=15	=15	=15	=15	=15	=15	=15	=15	=15
!	!	!LO:TX:a:t=Vla.:rj	!	!LO:TX:a:t=V. 2.:rj	!	!	!	!	!	!	!	!	!	!	!	!	!	!	!	!
2r	.	8r	.	8r	.	2ryy	.	2ryy	.	8g 8c'/	.	8C/	8C\	.	8cc 8e/	.	2ryy	.	2ryy	.
!	!	!	!LO:DY:rj	!	!LO:DY:rj:t=p.	!	!	!	!	!	!	!	!	!	!	!	!	!	!	!
.	.	16cc'\LL	p	16cc'\LL	p	.	.	.	.	8r	.	8r	8ryy	.	8r	.	.	.	.	.
.	.	16cc'\JJ	.	16cc'\JJ	.	.	.	.	.	.	.	.	.	.	.	.	.	.	.	.
.	.	8cc'\L	.	8cc'\L	.	.	.	.	.	(4b- 4g\	.	4r	4ryy	.	4r	.	.	.	.	.
.	.	16cc'\L	.	16cc'\L	.	.	.	.	.	.	.	.	.	.	.	.	.	.	.	.
.	.	16cc'\JJ	.	16cc'\JJ	.	.	.	.	.	.	.	.	.	.	.	.	.	.	.	.
*	*	*	*	*	*	*	*	*	*	*	*	*v	*v	*	*	*	*	*	*	*
=16	=16	=16	=16	=16	=16	=16	=16	=16	=16	=16	=16	=16	=16	=16	=16	=16	=16	=16	=16
2r	.	8cc'\L	.	8cc'\L	.	2ryy	.	2ryy	.	4a 4f\	.	2r	.	2r	.	2ryy	.	2ryy	.
.	.	16cc'\L	.	16cc'\L	.	.	.	.	.	.	.	.	.	.	.	.	.	.	.
.	.	16cc'\JJ	.	16cc'\JJ	.	.	.	.	.	.	.	.	.	.	.	.	.	.	.
.	.	8cc'\L	.	8cc'\L	.	.	.	.	.	4g 4c\)	.	.	.	.	.	.	.	.	.
.	.	8cc'\J	.	8cc'\J	.	.	.	.	.	.	.	.	.	.	.	.	.	.	.
!!LO:LB:g=original
=17!|:	=17!|:	=17!|:	=17!|:	=17!|:	=17!|:	=17!|:	=17!|:	=17!|:	=17!|:	=17!|:	=17!|:	=17!|:	=17!|:	=17!|:	=17!|:	=17!|:	=17!|:	=17!|:	=17!|:
*>B	*>B	*>B	*>B	*>B	*>B	*>B	*>B	*>B	*>B	*>B	*>B	*>B	*>B	*>B	*>B	*>B	*>B	*>B	*>B
*	*	*	*	*^	*	*	*	*	*	*	*	*	*	*	*	*	*	*	*
.	.	.	.	.	.	.	.	.	.	.	.	.	.	.	8qbb- 8qgg/	.	.	.	.	.
!	!	!	!LO:DY:t=pp.	!LO:TX:b:i:t=divisi	!	!LO:DY:t=pp.	!	!	!	!LO:DY:a:t=pp.	!	!	!	!	!	!LO:DY:t=pp.	!	!	!	!
4F\	pp	4f\	pp	16aa/LL	16ff\LL	pp	2ryy	.	4c 4F/	pp	8f 8F/	.	2r	.	(16aaLL 16ff\	pp	2ryy	.	2ryy	.
.	.	.	.	16gg/	16ee\	.	.	.	.	.	.	.	.	.	16gg 16ee\	.	.	.	.	.
!	!	!	!LO:DY:t=secunda volta un poco piu f.	!	!	!LO:DY:t=secunda volta un poco piu f.	!	!	!	!LO:DY:a:t=secunda volta un poco piu f.	!	!	!	!	!	!LO:DY:t=secunda volta un poco piu f.	!	!	!	!
.	.	.	f	16aa/	16ff\	f	.	.	.	f	8r	.	.	.	16aa 16ff\	f	.	.	.	.
.	.	.	.	16bb-/JJ	16gg\JJ	.	.	.	.	.	.	.	.	.	16bb-JJ 16gg\)	.	.	.	.	.
8F\L	.	8c\L	.	8aaL 8ff'\	4ryy	.	.	.	8cL 8F/	.	4r	.	.	.	8aaL 8ff'\	.	.	.	.	.
8F\J	.	8c\J	.	8ggJ 8ee'\	.	.	.	.	8cJ 8F/	.	.	.	.	.	8ggJ 8ee'\	.	.	.	.	.
=18	=18	=18	=18	=18	=18	=18	=18	=18	=18	=18	=18	=18	=18	=18	=18	=18	=18	=18	=18	=18
*	*	*	*	*	*	*	*	*	*	*	*	*	*	*	*^	*	*	*	*	*
*rep	*	*	*	*	*	*	*	*	*rep	*	*	*	*	*	*	*	*	*	*	*	*
.	.	.	.	8qbb-/	.	.	.	.	.	.	.	.	.	.	(8qgg	.	.	.	.	.	.
4F\	.	4c'\	.	4ccc 4cc\	4ryy	.	2ryy	.	4c 4F/	.	2r	.	2r	.	4ccc/)	4cc\	.	2ryy	.	2ryy	.
8F\L	.	8c\L	.	4cc/	4a\	.	.	.	8cL 8F/	.	.	.	.	.	4cc 4a\	4ryy	.	.	.	.	.
8F\J	.	8c\J	.	.	.	.	.	.	8cJ 8F/	.	.	.	.	.	.	.	.	.	.	.	.
*Xrep	*	*	*	*	*	*	*	*	*Xrep	*	*	*	*	*	*	*	*	*	*	*	*
*	*	*	*	*v	*v	*	*	*	*	*	*	*	*	*	*v	*v	*	*	*	*	*
=19	=19	=19	=19	=19	=19	=19	=19	=19	=19	=19	=19	=19	=19	=19	=19	=19	=19	=19	=19
*rep	*	*	*	*	*	*	*	*rep	*	*	*	*	*	*	*	*	*	*	*
.	.	.	.	8qee 8qcc/	.	.	.	.	.	.	.	.	.	8qee 8qcc/	.	.	.	.	.
4F\	.	4c\	.	16ddLL 16b-\	.	2ryy	.	4c 4F/	.	2r	.	2r	.	(16ddLL 16b-\	.	2ryy	.	2ryy	.
.	.	.	.	16cc 16a\	.	.	.	.	.	.	.	.	.	16cc 16a\	.	.	.	.	.
.	.	.	.	16dd 16b-\	.	.	.	.	.	.	.	.	.	16dd 16b-\	.	.	.	.	.
.	.	.	.	16eeJJ 16cc\	.	.	.	.	.	.	.	.	.	16eeJJ 16cc\)	.	.	.	.	.
8F\L	.	8c\L	.	8ffL 8a'\	.	.	.	8cL 8F/	.	.	.	.	.	8ffL 8a'\	.	.	.	.	.
8F\J	.	8c\J	.	8aJ 8f'\	.	.	.	8cJ 8F/	.	.	.	.	.	8aJ 8f'\	.	.	.	.	.
*Xrep	*	*	*	*	*	*	*	*Xrep	*	*	*	*	*	*	*	*	*	*	*
=20	=20	=20	=20	=20	=20	=20	=20	=20	=20	=20	=20	=20	=20	=20	=20	=20	=20	=20	=20
*	*	*	*	*	*	*	*	*	*	*	*	*	*	*^	*	*	*	*	*
*rep	*	*	*	*	*	*	*	*	*	*	*	*	*	*	*	*	*	*	*	*
.	.	.	.	8qcc 8qa/	.	.	.	.	.	.	.	.	.	8qcc 8qa/	.	.	.	.	.	.
4F\	.	4c\	.	16b-LL 16g/	.	2ryy	.	4c 4F/	.	4r	.	2r	.	(16b-LL 16g\	4ryy	.	2ryy	.	2ryy	.
.	.	.	.	16a 16f/	.	.	.	.	.	.	.	.	.	16a 16f\	.	.	.	.	.	.
.	.	.	.	16b- 16g/	.	.	.	.	.	.	.	.	.	16b- 16g\	.	.	.	.	.	.
.	.	.	.	16ccJJ 16a/	.	.	.	.	.	.	.	.	.	16ccJJ 16a\)	.	.	.	.	.	.
8F\L	.	8c\L	.	8aL 8f'/	.	.	.	8c 8F/	.	8r	.	.	.	8aL 8f/	8f\L	.	.	.	.	.
!	!	!	!	!	!	!	!	!	!	!	!	!	!LO:DY:t=pp.	!	!	!	!	!	!	!
8F\J	.	8f\J	.	8ccJ 8a'/	.	.	.	8r	.	8c 8F/	.	.	pp	8cc/J	8cc\J	.	.	.	.	.
*	*	*	*	*	*	*	*	*	*	*	*	*	*	*v	*v	*	*	*	*	*
*Xrep	*	*	*	*	*	*	*	*	*	*	*	*	*	*	*	*	*	*	*
=21	=21	=21	=21	=21	=21	=21	=21	=21	=21	=21	=21	=21	=21	=21	=21	=21	=21	=21	=21
*	*	*	*	*^	*	*	*	*	*	*	*	*^	*	*	*	*	*	*	*
*rep	*	*	*	*	*	*	*	*	*	*	*	*	*2\right	*	*	*	*	*	*	*	*
.	.	.	.	.	.	.	.	.	.	.	.	.	.	.	.	8qbb- 8qgg/	.	.	.	.	.
!	!	!	!	!LO:TX:a:t=1	!	!	!	!	!	!	!	!	!LO:TX:t=P:problem=w źródle fag 1 zapisany w kluczu tenorowym	!	!LO:DY:t=secunda volta un poco piu f.	!LO:TX:a:t=1	!	!	!	!	!
4F\	.	4f\	.	16aa/LLyy	16ff\LLyy	.	2ryy	.	2r	.	4c 4F/	.	4f/	2FF\	f	(y16aaLLyy 16ff\yy	.	2ryy	.	2ryy	.
.	.	.	.	16gg/yy	16ee\yy	.	.	.	.	.	.	.	.	.	.	16ggyy 16ee\yy	.	.	.	.	.
.	.	.	.	16aa/yy	16ff\yy	.	.	.	.	.	.	.	.	.	.	16aayy 16ff\yy	.	.	.	.	.
.	.	.	.	16bb-/JJyy	16gg\JJyy	.	.	.	.	.	.	.	.	.	.	16bb-JJyy 16gg\)yy	.	.	.	.	.
8F\L	.	8c\L	.	8aaLyy 8ff'\yy	4ryy	.	.	.	.	.	8cL 8F/	.	8c/L	.	.	8aaLyy 8ff'\yy	.	.	.	.	.
8F\J	.	8c\J	.	8ggJyy 8ee'\yy	.	.	.	.	.	.	8cJ 8F/	.	8c/J	.	.	8ggJyy 8ee'\yy	.	.	.	.	.
*Xrep	*	*	*	*	*	*	*	*	*	*	*	*	*	*	*	*	*	*	*	*	*
=22	=22	=22	=22	=22	=22	=22	=22	=22	=22	=22	=22	=22	=22	=22	=22	=22	=22	=22	=22	=22	=22
*	*	*	*	*	*	*	*	*	*	*	*	*	*	*	*	*^	*	*	*	*	*
*rep	*	*	*	*	*	*	*	*	*	*	*rep	*	*	*	*	*	*	*	*	*	*	*
.	.	.	.	8qbb-/yy	.	.	.	.	.	.	.	.	.	.	.	(y8qggyy	.	.	.	.	.	.
!	!	!	!	!LO:TX:a:t=2	!	!	!	!	!	!	!	!	!	!	!	!LO:TX:a:t=2	!	!	!	!	!	!
4F\	.	4c\	.	4cccyy 4cc\yy	4ryy	.	2ryy	.	2r	.	4c 4F/	.	(<4c/	2FF\	.	4ccc/)yy	4cc\yy	.	2ryy	.	2ryy	.
8F\L	.	8f\L	.	4cc/yy	4a\yy	.	.	.	.	.	8cL 8F/	.	8f/L)	.	.	4ccyy 4a\yy	4ryy	.	.	.	.	.
8F\J	.	8a\J	.	.	.	.	.	.	.	.	8cJ 8F/	.	8a/J	.	.	.	.	.	.	.	.	.
*Xrep	*	*	*	*	*	*	*	*	*	*	*Xrep	*	*	*	*	*	*	*	*	*	*	*
*	*	*	*	*v	*v	*	*	*	*	*	*	*	*	*	*	*v	*v	*	*	*	*	*
=23	=23	=23	=23	=23	=23	=23	=23	=23	=23	=23	=23	=23	=23	=23	=23	=23	=23	=23	=23	=23
*rep	*	*	*	*	*	*	*	*	*	*rep	*	*	*	*	*	*	*	*	*	*
.	.	.	.	8qeeyy 8qcc/yy	.	.	.	.	.	.	.	.	.	.	8qeeyy 8qcc/yy	.	.	.	.	.
!	!	!	!	!LO:TX:a:t=3	!	!	!	!	!	!	!	!	!	!	!LO:TX:a:t=3	!	!	!	!	!
4F\	.	(8g\L	.	16ddLLyy 16b-\yy	.	2ryy	.	2r	.	4c 4F/	.	(<8g/L	2FF\	.	(y16ddLLyy 16b-\yy	.	2ryy	.	2ryy	.
.	.	.	.	16ccyy 16a\yy	.	.	.	.	.	.	.	.	.	.	16ccyy 16a\yy	.	.	.	.	.
.	.	8c\J)	.	16ddyy 16b-\yy	.	.	.	.	.	.	.	8c/J)	.	.	16ddyy 16b-\yy	.	.	.	.	.
.	.	.	.	16eeJJyy 16cc\yy	.	.	.	.	.	.	.	.	.	.	16eeJJyy 16cc\)yy	.	.	.	.	.
8F\L	.	8f'\L	.	8ffLyy 8a'\yy	.	.	.	.	.	8cL 8F/	.	8f'</L	.	.	8ffLyy 8a'\yy	.	.	.	.	.
8F\J	.	8c'\J	.	8aJyy 8f'\yy	.	.	.	.	.	8cJ 8F/	.	8c'</J	.	.	8aJyy 8f'\yy	.	.	.	.	.
*Xrep	*	*	*	*	*	*	*	*	*	*Xrep	*	*	*	*	*	*	*	*	*	*
=24	=24	=24	=24	=24	=24	=24	=24	=24	=24	=24	=24	=24	=24	=24	=24	=24	=24	=24	=24	=24
*	*	*	*	*^	*	*	*	*	*	*	*	*	*	*	*^	*	*	*	*	*
8C/L	.	8c\L	.	(16ccLL 16a^/	4ryy	.	2ryy	.	2r	.	8cL 8C/	.	8c/L	(4CC\	.	(16ccLL 16a^/	4ryy	.	2ryy	.	2ryy	.
.	.	.	.	16b- 16g/)	.	.	.	.	.	.	.	.	.	.	.	16b- 16g/)	.	.	.	.	.	.
8C/J	.	8c\J	.	16a 16f'/	.	.	.	.	.	.	8cJ 8C/	.	8c/J	.	.	16a 16f'/	.	.	.	.	.	.
.	.	.	.	16gJJ 16e'/	.	.	.	.	.	.	.	.	.	.	.	16gJJ 16e'/	.	.	.	.	.	.
8F\	.	8F/	.	8f/	8f\	.	.	.	.	.	4c 4F/	.	8f/	8FF\)	.	8f/	8f\	.	.	.	.	.
8r	.	8r	.	8r	8ryy	.	.	.	.	.	.	.	8r	8r	.	8r	8ryy	.	.	.	.	.
*	*	*	*	*	*	*	*	*	*	*	*	*	*v	*v	*	*	*	*	*	*	*	*
*	*	*	*	*v	*v	*	*	*	*	*	*	*	*	*	*v	*v	*	*	*	*	*
!!LO:PB:g=original
=25:|!	=25:|!	=25:|!	=25:|!	=25:|!	=25:|!	=25:|!	=25:|!	=25:|!	=25:|!	=25:|!	=25:|!	=25:|!	=25:|!	=25:|!	=25:|!	=25:|!	=25:|!	=25:|!	=25:|!
*>C	*>C	*>C	*>C	*>C	*>C	*>C	*>C	*>C	*>C	*>C	*>C	*>C	*>C	*>C	*>C	*>C	*>C	*>C	*>C
*	*	*	*	*	*	*	*	*	*	*	*	*clefC4	*	*	*	*	*	*	*
.	.	.	.	8qdd/yy	.	8qff/yy	.	.	.	.	.	.	.	.	.	8qff 8qdd/	.	.	.
!	!LO:DY:rj	!	!LO:DY:rj	!LO:TX:a:t=Col Ob&colon; 2do	!	!LO:TX:a:t=Col Ob&colon; 1m	!	!	!LO:DY:a	!	!	!	!	!	!	!	!	!LO:TX:a:t=4	!
8CC/L	mf	[2G [>2C/	mf	16cc\LLyy	mf	16ee\LLyy	mf	8gL 8c'/	mf	2r	.	16eLL 16c\	mf	2r	.	16eeLL 16cc\	mf	2r	.
.	.	.	.	16bn\yy	.	16dd\yy	.	.	.	.	.	16d 16Bn\	.	.	.	16dd 16bn\	.	.	.
8C/	.	.	.	16cc\yy	.	16ee\yy	.	16gL 16c'/	.	.	.	16e 16c\	.	.	.	16ee 16cc\	.	.	.
.	.	.	.	16dd\JJyy	.	16ff\JJyy	.	16gJJ 16c'/	.	.	.	16fJJ 16d\	.	.	.	16ffJJ 16dd\	.	.	.
8CC/	.	.	.	8ee|\Lyy	.	8gg|\Lyy	.	8gL 8c'/	.	.	.	8gL 8e|\	.	.	.	8ggL 8ee'\	.	.	.
8C/J	.	.	.	8ee|\Jyy	.	8gg|\Jyy	.	8gJ 8c'/	.	.	.	8gJ 8e|\	.	.	.	8ggJ 8ee'\	.	.	.
=26	=26	=26	=26	=26	=26	=26	=26	=26	=26	=26	=26	=26	=26	=26	=26	=26	=26	=26	=26
*rep	*	*	*	*	*	*	*	*rep	*	*	*	*	*	*	*	*	*	*	*
!	!	!	!	!	!	!	!	!	!	!	!	!	!	!	!	!	!	!LO:TX:a:t=5	!
.	.	.	.	8qgg/yy	.	8qbbn/yy	.	.	.	.	.	.	.	.	.	8qbbn 8qgg/	.	.	.
8CC/L	.	2G_ 2C^/_	.	16ff\LLyy	.	16aa\LLyy	.	8gL 8c'/	.	2r	.	(8aL 8f\	.	2r	.	16aaLL 16ff\	.	2r	.
.	.	.	.	16ee\yy	.	16gg\yy	.	.	.	.	.	.	.	.	.	16gg 16ee\	.	.	.
8C/	.	.	.	16ff\yy	.	16aa\yy	.	16gL 16c'/	.	.	.	8f 8d\	.	.	.	16aa 16ff\	.	.	.
.	.	.	.	16gg\JJyy	.	16bb\JJyy	.	16gJJ 16c'/	.	.	.	.	.	.	.	16bbJJ 16gg\	.	.	.
8CC/	.	.	.	8ee'\Lyy	.	8gg'\Lyy	.	8gL 8c'/	.	.	.	8g 8e'\)	.	.	.	8ggL 8ee'\	.	.	.
8C/J	.	.	.	8ee'\Jyy	.	8gg'\Jyy	.	8gJ 8c'/	.	.	mf	8gJ 8e'\	.	.	.	8ggJ 8ee'\	.	.	.
*Xrep	*	*	*	*	*	*	*	*Xrep	*	*	*	*	*	*	*	*	*	*	*
=27	=27	=27	=27	=27	=27	=27	=27	=27	=27	=27	=27	=27	=27	=27	=27	=27	=27	=27	=27
*	*	*	*	*	*	*	*	*	*	*	*	*^	*	*	*	*	*	*^	*
*rep	*	*	*	*	*	*	*	*	*	*	*	*	*	*	*	*	*	*	*	*	*
.	.	.	.	8qdd/yy	.	8qff/yy	.	.	.	.	.	.	.	.	.	.	8qff 8qdd/	.	8qff/	.	.
!	!	!	!	!	!	!	!	!	!	!	!	!	!	!	!	!	!	!	!LO:TX:a:t=6	!	!
8CC/L	.	2G] 2C/]	.	16cc\LLyy	.	16ee\LLyy	.	2r	.	8gL 8c'/	.	16g/LL	16e\LL	.	2r	.	16eeLL 16cc\	.	16ee\LL	2rc	.
.	.	.	.	16bn\yyy	.	16dd\yy	.	.	.	.	.	16f/	16d\	.	.	.	16dd 16bn\	.	16dd\	.	.
8C/	.	.	.	16cc\yy	.	16ee\yy	.	.	.	16gL 16c'/	.	16e/	16c\	.	.	.	16ee 16cc\	.	16ee\	.	.
.	.	.	.	16dd\JJyy	.	16ff\JJyy	.	.	.	16gJJ 16c'/	.	16f/JJ	16d\JJ	.	.	.	16ffJJ 16dd\	.	16ff\JJ	.	.
8CC/	.	.	.	8ee\Lyy	.	8gg\Lyy	.	.	.	8gL 8c'/	.	8e/L|	8c\L	.	.	.	8ggL 8ee\	.	8gg\L	.	.
8C/J	.	.	.	8ee\Jyy	.	8gg\Jyy	.	.	.	8gJ 8c'/	.	8E/J|	8E\J	.	.	.	8ggJ 8ee\	.	8gg\J	.	.
*Xrep	*	*	*	*	*	*	*	*	*	*	*	*	*	*	*	*	*	*	*	*	*
=28	=28	=28	=28	=28	=28	=28	=28	=28	=28	=28	=28	=28	=28	=28	=28	=28	=28	=28	=28	=28	=28
*	*	*	*	*	*	*	*	*^	*	*	*	*	*	*	*	*	*	*	*	*	*
8DD/L	.	8d\L	.	8ff'\L	.	(16aa\LL	.	8f'</L	2r	.	8gL 8c'/	.	8D/L|	8D\L	.	2r	.	8aaL 8ff\	.	(16aa\LL	2rc	.
.	.	.	.	.	.	16ccc\)	.	.	.	.	.	.	.	.	.	.	.	.	.	16ccc\)	.	.
8GG/J	.	8dJ 8G\	.	8ff 8dd'\	.	(16bbn\	.	8g'</J	.	.	8fJ 8d/	.	8G/J|	8G\J	.	.	.	8bbnJ 8dd\	.	(16bbn\	.	.
.	.	.	.	.	.	16ddd\JJ)	.	.	.	.	.	.	.	.	.	.	.	.	.	16ddd\JJ)	.	.
4CC^/	.	8d 8G\	.	(8ee^\	.	(8ccc^\L	.	8c/	.	.	(8eL 8c^/	.	4C^/	4C\	.	.	.	8ccc 8ee\	.	(8ccc^\L	.	.
.	.	8r	.	8gg\J)	.	8gg\J)	.	8r	.	.	8gJ 8e/)	.	.	.	.	.	.	8r	.	16gg\Jk)	.	.
.	.	.	.	.	.	.	.	.	.	.	.	.	.	.	.	.	.	.	.	16r	.	.
*	*	*	*	*	*	*	*	*v	*v	*	*	*	*v	*v	*	*	*	*	*	*v	*v	*
=29	=29	=29	=29	=29	=29	=29	=29	=29	=29	=29	=29	=29	=29	=29	=29	=29	=29	=29	=29
.	.	.	.	8qdd/yy	.	8qff/yy	.	.	.	.	.	.	.	.	.	8qffyy 8qdd/yy	.	.	.
!	!LO:DY:rj	!LO:TX:b:t=4	!	!	!	!LO:TX:a:t=Col Ob. 1m	!	!LO:TX:a:t=4	!LO:DY:a	!	!	!LO:TX:a:t=4	!	!	!	!	!	!LO:TX:a:t=4	!
8CC/Lyy	mfy	[y2Gyy [y>2C/yy	.	16cc\LLyy	mfy	16ee\LLyy	mfy	8gLyy 8c'/yy	mfy	2r	.	16eLLyy 16c\yy	mfy	2r	.	16eeLLyy 16cc\yy	mfy	2ryy	.
.	.	.	.	16bn\yy	.	16dd\yy	.	.	.	.	.	16dyy 16Bn\yy	.	.	.	16ddyy 16bn\yy	.	.	.
8C/yy	.	.	.	16cc\yy	.	16ee\yy	.	16gLyy 16c'/yy	.	.	.	16eyy 16c\yy	.	.	.	16eeyy 16cc\yy	.	.	.
.	.	.	.	16dd\JJyy	.	16ff\JJyy	.	16gJJyy 16c'/yy	.	.	.	16fJJyy 16d\yy	.	.	.	16ffJJyy 16dd\yy	.	.	.
8CC/yy	.	.	.	8ee|\Lyy	.	8gg|\Lyy	.	8gLyy 8c'/yy	.	.	.	8gLyy 8e|\yy	.	.	.	8ggLyy 8ee'\yy	.	.	.
8C/Jyy	.	.	.	8ee|\Jyy	.	8gg|\Jyy	.	8gJyy 8c'/yy	.	.	.	8gJyy 8e|\yy	.	.	.	8ggJyy 8ee'\yy	.	.	.
=30	=30	=30	=30	=30	=30	=30	=30	=30	=30	=30	=30	=30	=30	=30	=30	=30	=30	=30	=30
*yrep	*	*	*	*	*	*	*	*yrep	*	*	*	*	*	*	*	*	*	*	*
.	.	.	.	8qgg/yy	.	8qbbn/yy	.	.	.	.	.	.	.	.	.	8qbbnyy 8qgg/yy	.	.	.
!	!	!LO:TX:b:t=5	!	!	!	!	!	!LO:TX:a:t=5	!	!	!	!LO:TX:a:t=5	!	!	!	!	!	!LO:TX:a:t=5	!
8CC/Lyy	.	2G_yy 2C^/_yy	.	16ff\LLyy	.	16aa\LLyy	.	8gLyy 8c'/yy	.	2r	.	(y8aLyy 8f\yy	.	2r	.	16aaLLyy 16ff\yy	.	2ryy	.
.	.	.	.	16ee\yy	.	16gg\yy	.	.	.	.	.	.	.	.	.	16ggyy 16ee\yy	.	.	.
8C/yy	.	.	.	16ff\yy	.	16aa\yy	.	16gLyy 16c'/yy	.	.	.	8fyy 8d\yy	.	.	.	16aayy 16ff\yy	.	.	.
.	.	.	.	16gg\JJyy	.	16bb\JJyy	.	16gJJyy 16c'/yy	.	.	.	.	.	.	.	16bbJJyy 16gg\yyy	.	.	.
8CC/yy	.	.	.	8ee'\Lyy	.	8gg'\Lyy	.	8gLyy 8c'/yy	.	.	.	8gyy 8e'\)yy	.	.	.	8ggLyy 8ee'\yy	.	.	.
8C/Jyy	.	.	.	8ee'\Jyy	.	8gg'\Jyy	.	8gJyy 8c'/yy	.	.	.	8gJyy 8e'\yy	.	.	.	8ggJyy 8ee'\yy	.	.	.
*Xrep	*	*	*	*	*	*	*	*Xrep	*	*	*	*	*	*	*	*	*	*	*
=31	=31	=31	=31	=31	=31	=31	=31	=31	=31	=31	=31	=31	=31	=31	=31	=31	=31	=31	=31
*	*	*	*	*	*	*	*	*	*	*	*	*^	*	*	*	*	*	*^	*
*yrep	*	*	*	*	*	*	*	*	*	*	*	*	*	*	*	*	*	*	*	*	*
.	.	.	.	8qdd/yy	.	8qff/yy	.	.	.	.	.	.	.	.	.	.	8qffyy 8qdd/yy	.	8qff/yy	.	.
!	!	!LO:TX:b:t=6	!	!	!	!	!	!LO:TX:a:t=6	!	!	!	!LO:TX:a:t=6	!	!	!	!	!	!	!LO:TX:a:t=6	!	!
8CC/Lyy	.	2G]yy 2C/]yy	.	16cc\LLyy	.	16ee\LLyy	.	2ryy	.	8gL 8c'/	.	16g/LLyy	16e\LLyy	.	2ryy	.	16eeLLyy 16cc\yy	.	16ee\LLyy	2ryy	.
.	.	.	.	16bn\yy	.	16dd\yy	.	.	.	.	.	16f/yy	16d\yy	.	.	.	16ddyy 16bn\yy	.	16dd\yy	.	.
8C/yy	.	.	.	16cc\yy	.	16ee\yy	.	.	.	16gL 16c'/	.	16e/yy	16c\yy	.	.	.	16eeyy 16cc\yy	.	16ee\yy	.	.
.	.	.	.	16dd\JJyy	.	16ff\JJyy	.	.	.	16gJJ 16c'/	.	16f/JJyy	16d\JJyy	.	.	.	16ffJJyy 16dd\yy	.	16ff\JJyy	.	.
8CC/yy	.	.	.	8ee\Lyy	.	8gg\Lyy	.	.	.	8gL 8c'/	.	8e/L|yy	8c\Lyyy	.	.	.	8ggLyy 8ee\yy	.	8gg\Lyy	.	.
8C/Jyy	.	.	.	8ee\Jyy	.	8gg\Jyy	.	.	.	8gJ 8c'/	.	8E/J|yy	8E\Jyy	.	.	.	8ggJyy 8ee\yy	.	8gg\Jyy	.	.
*Xrep	*	*	*	*	*	*	*	*	*	*	*	*	*	*	*	*	*	*	*	*	*
=32	=32	=32	=32	=32	=32	=32	=32	=32	=32	=32	=32	=32	=32	=32	=32	=32	=32	=32	=32	=32	=32
*	*	*	*	*	*	*	*	*	*	*^	*	*	*	*	*	*	*	*	*	*	*
8FF'/L	.	8cL 8C'/	.	8ff\L	.	(16aa\LL	.	8f/L	.	8a 8c/L	8c\L	.	8F/L	8F\L	.	2r	.	8aaL 8ff\	.	(16aa/LL	4r	.
.	.	.	.	.	.	16ccc\)	.	.	.	.	.	.	.	.	.	.	.	.	.	16ccc/JJ)	.	.
8DD'/J	.	8G|/J	.	8ffJ 8dd\	.	(16bbn\	.	8f/	.	8g/	8d\	.	8D/	8D\	.	.	.	8bbnJ 8dd\	.	(16bbn/LL	.	.
.	.	.	.	.	.	16ddd\JJ)	.	.	.	.	.	.	.	.	.	.	.	.	.	16ddd/JJ)	.	.
!	!	!	!	!	!	!	!	!	!	!	!	!	!	!	!	!	!	!	!	!LO:TX:b:i:t=Piccolo.	!	!
8CC'/	.	8c 8C|/	.	8ee\	.	8.ccc\L	.	8f/J	.	8g/J	8c\J	.	8C/J	8C\J	.	.	.	8ccc 8ee\	.	8ccc/	8r	.
8r	.	8r	.	8r	.	.	.	8r	.	8r	8r	.	8r	8ryy	.	.	.	8r	.	16gg/LL	16gg\LL	.
.	.	.	.	.	.	16bb-y\Jk	.	.	.	.	.	.	.	.	.	.	.	.	.	16bb/JJ	16bb\JJ	.
*	*	*	*	*	*	*	*	*	*	*v	*v	*	*	*	*	*	*	*	*	*	*	*
*	*	*	*	*	*	*	*	*	*	*	*	*v	*v	*	*	*	*	*	*	*	*
!!LO:LB:g=original
=33	=33	=33	=33	=33	=33	=33	=33	=33	=33	=33	=33	=33	=33	=33	=33	=33	=33	=33	=33	=33
*	*	*	*	*	*	*	*	*	*	*	*	*	*	*	*	*^	*	*	*	*
*	*	*	*	*	*	*	*	*clefF4	*	*	*	*	*	*	*	*	*	*	*	*	*
.	.	.	.	.	.	8qbb-/	.	.	.	.	.	.	.	.	.	.	.	.	.	8qbb-/yy	.
!	!LO:DY:rj	!	!LO:DY:rj	!	!LO:DY:rj	!	!LO:DY:rj	!	!LO:DY:rj	!	!LO:DY:rj	!	!LO:DY:rj	!	!LO:DY:rj	!LO:TX:a:t=7	!	!LO:DY:rj	!	!LO:TX:b:i:t=Picolo col V. 1.	!
4FF^/	f	16a\LL	f	16cc\LL	f	16aa\LL	f	[2FF [>2FFF/	f	4f 4C/	f	(16cLL 16A\	f	(16ccLL 16a\	f	4ff/	4ff\	f	8fff\L	16aa\LLyy	fy
.	.	16b-\	.	16dd\	.	16gg\	.	.	.	.	.	16d 16B-\	.	16dd 16b-\	.	.	.	.	.	16gg\yy	.
.	.	16a\	.	16cc\	.	16aa\	.	.	.	.	.	16c 16A\	.	16cc 16a\	.	.	.	.	16fff\L	16aa\yy	.
.	.	16g\JJ	.	16b-\JJ	.	16bb-\JJ	.	.	.	.	.	16B-JJ 16G\)	.	16b-JJ 16g\)	.	.	.	.	16ggg\JJ	16bb-\JJyy	.
4C^/	.	8f\L	.	8a/L	.	8aa\L	.	.	.	8cL 8C/	.	8AL 8F\|	.	8aL 8f/	.	8cc/L	8cc\L	.	8fff|\L	8aa\Lyy	.
.	.	8g\J	.	8b-/J	.	8gg\J	.	.	.	8cJ 8C/	.	8B-J 8G\|	.	8b-J 8g/	.	8cc/J	8cc\J	.	8eee|\J	8gg\Jyy	.
=34	=34	=34	=34	=34	=34	=34	=34	=34	=34	=34	=34	=34	=34	=34	=34	=34	=34	=34	=34	=34	=34
!	!	!	!	!	!	!	!	!	!	!	!	!LO:TX:a:t=Col Clar.	!	!	!	!LO:TX:a:t=8	!	!	!	!	!
4FF^/	.	4a\	.	(8cc\L	.	(4ccc^\	.	2FF_ 2FFF^>/_>	.	4c 4C/	.	4Ayy 4F/yy	.	4a 4f/	.	8cc/L	8cc\L	.	4fff^\	(y4ccc\yy	.
.	.	.	.	8ff\J)	.	.	.	.	.	.	.	.	.	.	.	8ff/J	8ff\J	.	.	.	.
4C^/	.	4f\	.	4a/	.	4cc\)	.	.	.	8cL 8C/	.	4Ayy 4F/yy	.	4a 4f/	.	4cc/	4cc\	.	4aa^\	4cc\)yy	.
.	.	.	.	.	.	.	.	.	.	8cJ 8C/	.	.	.	.	.	.	.	.	.	.	.
=35	=35	=35	=35	=35	=35	=35	=35	=35	=35	=35	=35	=35	=35	=35	=35	=35	=35	=35	=35	=35	=35
*	*	*	*	*	*	*	*	*	*	*rep	*	*	*	*	*	*	*	*	*	*	*
.	.	.	.	.	.	8qee/	.	.	.	.	.	.	.	.	.	.	.	.	.	8qee/yy	.
!	!	!	!	!	!	!	!	!	!	!	!	!LO:S:s=2:note:problem=note-level slur	!	!LO:S:s=2:note:problem=note-level slur	!	!LO:TX:a:t=9	!	!	!	!	!
8FF|/L	.	(4g^\	.	(>4b-^/	.	16dd\LL	.	2FF] 2FFF^>/]	.	4c 4C/	.	(y4B-yy (y>4G^/yy	.	(4b- (>4g^/	.	(16dd/LL	16dd\LL	.	(4bb-^\	16dd\LLyy	.
.	.	.	.	.	.	16cc\	.	.	.	.	.	.	.	.	.	16cc/	16cc\	.	.	16cc\yy	.
8C|/	.	.	.	.	.	16dd\	.	.	.	.	.	.	.	.	.	16dd/	16dd\	.	.	16dd\yy	.
.	.	.	.	.	.	16ee\JJ	.	.	.	.	.	.	.	.	.	16ee/JJ)	16ee\JJ	.	.	16ee\JJyy	.
8FF|/	.	8f\L)|	.	8a|/L)	.	8ff\L	.	.	.	8cL 8C/	.	8AL)yy 8F'/)yy	.	8aL) 8f'/)	.	4ff/	4ff\	.	8aa\L)	8ff\Lyy	.
8C|/J	.	8f\J|	.	8f|/J	.	8a\J	.	.	.	8cJ 8C/	.	8AJyy 8F'/yy	.	8aJ 8f'/	.	.	.	.	8ff\J	8a\Jyy	.
*	*	*	*	*	*	*	*	*	*	*Xrep	*	*	*	*	*	*	*	*	*	*	*
*	*	*	*	*	*	*	*	*	*	*	*	*	*	*	*	*v	*v	*	*	*	*
=36	=36	=36	=36	=36	=36	=36	=36	=36	=36	=36	=36	=36	=36	=36	=36	=36	=36	=36	=36	=36
*	*	*	*	*	*	*	*	*	*	*rep	*	*	*	*	*	*	*	*	*	*
.	.	.	.	.	.	8qcc/	.	.	.	.	.	.	.	.	.	.	.	.	8qcc/	.
8FF|/L	.	8f\L|	.	8c|/L	.	16b-/LL	.	8FFL 8FFF/	.	4c 4C/	.	8FLyy 8D'/yy	.	8fL 8d'/	.	2ryy	.	8dd\L	16b-\LLyy	.
.	.	.	.	.	.	16a/	.	.	.	.	.	.	.	.	.	.	.	.	16a\yy	.
8C|/	.	8g\J|	.	8e|/J	.	16b-/	.	8FF 8FFF/	.	.	.	8GJyy 8E'/yy	.	8gJ 8e'/	.	.	.	8ee\J	16b-\yy	.
.	.	.	.	.	.	16cc/JJ	.	.	.	.	.	.	.	.	.	.	.	.	16cc\JJyy	.
8FF|/	.	4c\	.	4f/	.	8a/L	.	8FFJ 8FFF/	.	8cL 8C/	.	4Ayy 4F/yy	.	4a 4f/	.	.	.	8ff\	8a\Lyy	.
8C|/J	.	.	.	.	.	16cc/L	.	8r	.	8cJ 8C/	.	.	.	.	.	.	.	8r	16cc\Lyy	.
.	.	.	.	.	.	16ff/JJ	.	.	.	.	.	.	.	.	.	.	.	.	16ff\JJyy	.
*	*	*	*	*	*	*	*	*	*	*Xrep	*	*	*	*	*	*	*	*	*	*
=37	=37	=37	=37	=37	=37	=37	=37	=37	=37	=37	=37	=37	=37	=37	=37	=37	=37	=37	=37	=37
*	*	*	*	*	*	*	*	*	*	*	*	*	*	*	*	*^	*	*	*	*
.	.	.	.	.	.	8qbb-/yy	.	.	.	.	.	.	.	.	.	.	.	.	.	8qbb-/yy	fy
!	!LO:DY:rj	!	!LO:DY:rj	!	!LO:DY:rj	!LO:TX:a:t=7	!LO:DY:rj	!	!LO:DY:rj	!LO:TX:a:t=7	!LO:DY:rj	!	!LO:DY:rj	!	!LO:DY:rj	!LO:TX:a:t=7	!	!LO:DY:rj	!LO:TX:a:t=7	!	!
4FF^/yy	fy	16a\LLyy	fy	16cc\LLyy	fy	16aa\LLyy	fy	[y2FFyy [y>2FFF/yy	fy	4fyy 4C/yy	fy	(y16cLLyy 16A\yy	fy	(y16ccLLyy 16a\yy	fy	4ff/yy	4ff\yy	fy	8fff\L	16aa\LLyy	.
.	.	16b-\yy	.	16dd\yy	.	16gg\yy	.	.	.	.	.	16dyy 16B-\yy	.	16ddyy 16b-\yy	.	.	.	.	.	16gg\yy	.
.	.	16a\yy	.	16cc\yy	.	16aa\yy	.	.	.	.	.	16cyy 16A\yy	.	16ccyy 16a\yy	.	.	.	.	16fff\L	16aa\yy	.
.	.	16g\JJyy	.	16b-\JJyy	.	16bb-\JJyy	.	.	.	.	.	16B-JJyy 16G\)yy	.	16b-JJyy 16g\)yyy	.	.	.	.	16ggg\JJ	16bb-\JJyy	.
4C^/yy	.	8f\Lyy	.	8a/Lyy	.	8aa\Lyy	.	.	.	8cLyy 8C/yy	.	8ALyy 8F/yy	.	8aLyy 8f/yy	.	8cc/Lyy	8cc\Lyy	.	8fff\L	8aa\Lyy	.
.	.	8g\Jyy	.	8b-/Jyy	.	8gg\Jyy	.	.	.	8cJyy 8C/yy	.	8B-Jyy 8G/yy	.	8b-Jyy 8g/yy	.	8cc/Jyy	8cc\Jyy	.	8eee\J	8gg\Jyy	.
=38	=38	=38	=38	=38	=38	=38	=38	=38	=38	=38	=38	=38	=38	=38	=38	=38	=38	=38	=38	=38	=38
!	!	!	!	!	!	!LO:TX:a:t=8	!	!	!	!LO:TX:a:t=8	!	!	!	!	!	!LO:TX:a:t=8	!	!	!LO:TX:a:t=8	!	!
4FF^/yy	.	4a\yy	.	(y8cc\Lyy	.	(y4ccc^\yy	.	2FF_yy 2FFF^>/_>yy	.	4cyy 4C/yy	.	4Ayy 4F/yy	.	4ayy 4f/yy	.	8cc/Lyy	8cc\Lyy	.	4fff\	(y4ccc\yy	.
.	.	.	.	8ff\J)yy	.	.	.	.	.	.	.	.	.	.	.	8ff/Jyy	8ff\Jyy	.	.	.	.
4C^/yy	.	4f\yy	.	4a/yy	.	4cc\)yy	.	.	.	8cLyy 8C/yy	.	4Ayy 4F/yy	.	4ayy 4f/yy	.	4cc/yy	4cc\yy	.	4aa\	4cc\)yy	.
.	.	.	.	.	.	.	.	.	.	8cJyy 8C/yy	.	.	.	.	.	.	.	.	.	.	.
=39	=39	=39	=39	=39	=39	=39	=39	=39	=39	=39	=39	=39	=39	=39	=39	=39	=39	=39	=39	=39	=39
.	.	.	.	.	.	8qee/yy	.	.	.	.	.	.	.	.	.	.	.	.	.	8qee\yy	.
!	!	!	!	!	!	!LO:TX:a:t=9	!	!	!	!LO:TX:a:t=9.	!	!LO:S:s=2:note:problem=note-level slur	!	!LO:S:s=2:note:problem=note-level slur	!	!LO:TX:a:t=9	!	!	!LO:TX:a:t=9	!	!
8FF|/Lyy	.	(y4g^\yy	.	(y4b-^/yy	.	16dd\LLyy	.	2FF]yy 2FFF^>/]yy	.	4cyy 4C/yy	.	(y4B-yy (y>4G^/yy	.	(y4b-yy (y>4g^/yy	.	(y16dd/LLyyy	16dd\LLyy	.	4bb-^\	16dd\LLyy	.
.	.	.	.	.	.	16cc\yy	.	.	.	.	.	.	.	.	.	16cc/yy	16cc\yy	.	.	16cc\yy	.
8C|/yy	.	.	.	.	.	16dd\yy	.	.	.	.	.	.	.	.	.	16dd/yy	16dd\yy	.	.	16dd\yy	.
.	.	.	.	.	.	16ee\JJyy	.	.	.	.	.	.	.	.	.	16ee/JJ)yy	16ee\JJyy	.	.	16ee\JJyy	.
8FF|/yy	.	8f\L)|yy	.	8a|/L)yy	.	8ff\Lyy	.	.	.	8cLyy 8C/yy	.	8AL)yy 8F'/)yy	.	8aL)yy 8f'/)yy	.	4ff/yy	4ff\yy	.	4aa\	8ff\Lyy	.
8C|/Jyy	.	8f\J|yy	.	8f|/Jyy	.	8a\Jyy	.	.	.	8cJyy 8C/yy	.	8AJyy 8F'/yy	.	8aJyy 8f'/yy	.	.	.	.	.	8a\Jyy	.
*	*	*	*	*	*	*	*	*clefG2	*	*	*	*	*	*	*	*	*	*	*	*	*
*	*	*	*	*	*	*	*	*	*	*	*	*	*	*	*	*v	*v	*	*	*	*
=40	=40	=40	=40	=40	=40	=40	=40	=40	=40	=40	=40	=40	=40	=40	=40	=40	=40	=40	=40	=40
*	*	*	*	*	*	*	*	*	*	*	*	*^	*	*^	*	*	*	*	*	*
8CL 8CC/	.	8c\L	.	16a^/LL	.	16cc^/LL	.	8cL 8C/	.	8cL 8C/	.	16cLL 16A^/	4ryy	.	16ccLLyy 16a^/yy	4ryy	.	16aaLL 16cc^\	.	16aa^\LL	16cc\LLyy	.
.	.	.	.	16g/	.	16b-/	.	.	.	.	.	16B- 16G/	.	.	16b-yy 16g/yy	.	.	16gg 16b-\	.	16gg\	16b-\yy	.
8CJ 8CC/	.	8c\J	.	16f/	.	16a/	.	8c 8C/	.	8c 8C/	.	16A 16F/	.	.	16ayy 16f/yy	.	.	16ff 16a\	.	16ff\	16a\yy	.
.	.	.	.	16e/JJ	.	16g/JJ	.	.	.	.	.	16GJJ 16E/	.	.	16gJJyy 16e/yy	.	.	16eeJJ 16g\	.	16ee\JJ	16g\JJyy	.
8FF/	.	8F/	.	8f/	.	8f/	.	8F/J	.	8fJ 8F/	.	8F/	8F\	.	8f/	8f\	.	8ff 8f\	.	8ff/	8ff\	.
8r	.	8r	.	8r	.	8r	.	8r	.	8r	.	8r	8ryy	.	8r	8ryy	.	8r	.	8r	8ryy	.
*	*	*	*	*	*	*	*	*	*	*	*	*v	*v	*	*	*	*	*	*	*v	*v	*
*	*	*	*	*	*	*	*	*	*	*	*	*	*	*v	*v	*	*	*	*	*
==	==	==	==	==	==	==	==	==	==	==	==	==	==	==	==	==	==	==	==
*-	*-	*-	*-	*-	*-	*-	*-	*-	*-	*-	*-	*-	*-	*-	*-	*-	*-	*-	*-
!!!system-decoration: (<s1,s2,s3,s4>{s5,s6}<s7,s8,s9,s10>)
!!!RDF**kern: > = above
!!!RDF**kern: < = below
!!!RDF**kern: | = vertical stroke
!!!AIN: 1 clars 3 empty 1 fagot 1 flt 1 oboe 1 viola 2 violn
!!!ENC: Anastazja Marusiak
!!!END: 2021-09-02
!!!ENC: Andrzej Kubiczek
!!!END: 2021-09-28
